assets/logo-cover.svg

<svg fill="none" height="56" viewBox="0 0 155 56" width="155" xmlns="http://www.w3.org/2000/svg"><path d="m48.4803 52.4246 6.7621-15.794h-.0191c.2292-.5053.4393-1.0293.6113-1.5532 1.7191-4.8655 1.8337-9.9929.4011-14.8397l-4.2979-16.33669c-.0764-.39298-.2102-.76724-.4012-1.14151-.4011-.78596-.9933-1.45964-1.7382-1.946183-1.1271-.7298183-2.5215-.973091-3.8395-.711105l-16.4659 2.414018c-2.9226.2807-5.7878 1.04794-8.5003 2.33916-2.6552 1.2725-5.0238 2.93799-7.0104 4.94031l-12.12971 11.3028c-.30563.2433-.59215.524-.82138.8234-.553952.6924-.897786 1.5345-.9932954 2.3953-.1719166 1.3474.2483244 2.676 1.1079054 3.7053l10.94538 14.0724v-.0188c1.681 2.1334 3.7058 3.986 5.998 5.483 2.0057 1.2913 4.1642 2.2831 6.3991 2.9567l-.0191.0187 17.4019 5.1649c.5157.1872 1.0506.2994 1.6236.2994.8978.0187 1.7956-.1871 2.5788-.6175 1.1843-.6175 2.0439-1.7029 2.4068-2.9567zm-2.2922-49.21598c.6304-.29941 1.3753-.22456 1.9102.13099.2865.18714.5157.43041.6685.74853.4585.93567.0765 2.07718-.8977 2.5263-.5922.2807-1.2417.22456-1.7765-.05614-.0382-.03743-.0764-.05614-.1337-.09357-.0382-.01871-.0764-.05614-.1146-.07485-.2293-.16842-.4203-.39298-.554-.65496-.4775-.93567-.0764-2.05847.8978-2.5263zm-42.71184 20.56588c.64946-.8234 1.87198-.9918 2.71247-.3555.51575.393.76407.9731.74497 1.5719 0 .0749 0 .1497-.0191.2246-.03821.2994-.17192.5988-.36294.8608-.64946.8234-1.87198.9918-2.71247.3555-.57305-.4304-.82138-1.0853-.74497-1.7403.0382-.3181.17192-.6363.38204-.917zm10.79254 11.7146c-4.77545-9.6187-.6876-21.1835 9.1307-25.86182 6.5138-3.10641 13.9444-2.37659 19.5795 1.27252 2.8462 1.8526 5.2339 4.435 6.8385 7.6537 4.7754 9.6187.6876 21.1835-9.1308 25.8618-6.5137 3.1064-13.9443 2.3766-19.5794-1.2725-2.8462-1.8526-5.2339-4.4351-6.8385-7.6537zm30.3147 17.2536c-.2865.1684-.6303.2433-.9933.2433-1.0697-.0187-1.9102-.8982-1.8911-1.9462.0192-.6924.4203-1.2912.9934-1.6093.2865-.1684.6303-.2433.9932-.2433 1.0698.0187 1.9102.8982 1.8911 1.9462-.0191.6924-.4202 1.2912-.9933 1.6093zm32.9508-17.4969v-7.6725c0-5.0526-2.9608-7.8408-8.3475-7.8408-4.7755 0-7.8127 2.3391-7.9273 2.4327l-.191.1497 2.063 3.7988.2674-.1871c.0191-.0187 2.5788-1.7965 5.3676-1.7965 2.1968 0 3.3238 1.0105 3.3238 3.0315v.3556h-.936c-1.49 0-4.3362.131-6.7812 1.0479-2.999 1.1228-4.508 3.0316-4.508 5.6889 0 1.9087.7258 3.4994 2.1012 4.6035 1.2034.973 2.8653 1.5157 4.6799 1.5157 3.1709 0 5.0047-1.759 5.8452-2.9005v.1497c0 1.4409 1.0315 2.3017 2.7889 2.3017h4.8901v-4.1356h-2.063c-.4012 0-.5731-.1684-.5731-.5427zm-9.6465.9918c-1.7573 0-2.5596-1.1789-2.5596-2.3579 0-.8795.6113-2.9193 6.2845-2.9193h.5158v.3556c0 2.3204-1.8147 4.9216-4.2407 4.9216zm29.9136-1.9836c0 3.7052-3.3428 6.1005-8.5385 6.1005-3.9923 0-8.2329-1.7216-8.2329-4.9029v-2.5075h4.7181v1.4034c0 1.179 1.8338 1.703 3.553 1.703 1.4708 0 3.0563-.4492 3.0563-1.6655 0-1.1603-1.0888-1.5907-3.3237-2.3766-.3057-.1123-.6113-.2059-.936-.3369-2.3687-.8046-6.361-2.1707-6.361-6.2128 0-4.2666 4.3171-5.7637 8.0037-5.7637 2.9608 0 7.3543 1.1415 7.3543 4.2667v2.7321h-4.7564v-1.3661c0-.7859-1.0124-1.2912-2.5979-1.2912-.5921 0-2.5596.1123-2.5596 1.4409 0 1.3474 1.7 1.9462 3.8968 2.5825 2.8461.9169 6.7238 2.1333 6.7238 6.1941zm21.1266 1.5345h1.395v4.1356h-3.935c-1.643 0-2.465-.2433-3.324-1.7965l-3.534-6.0444c-.306-.5239-.764-.5801-1.433-.5801h-.859v4.2854h2.12v4.1356h-10.3914v-4.1356h2.8274v-18.994h-3.0375v-4.1357h8.4815v14.7835h2.158l2.694-3.1251h-1.93v-4.1356h9.972v4.1356h-2.675l-3.992 4.6222c.344.2433.86.7485 1.356 1.5719l2.77 4.7345c.229.4304.439.5427 1.337.5427zm12.244-16.056c-6.017 0-10.219 4.2479-10.219 10.311 0 5.9882 4.546 10.311 10.812 10.311 4.966 0 7.965-2.6386 8.099-2.7508l.172-.1497-2.159-3.8737-.267.2246c-.019.0187-2.445 1.9649-5.502 1.9649-3.018 0-5.176-1.8714-5.558-4.7719h13.486l.019-.2433c0-.0374.114-1.0667.114-1.6468 0-2.6198-.821-4.9777-2.311-6.6432-1.604-1.7778-3.916-2.7321-6.686-2.7321zm-.114 4.2479c1.948 0 3.324 1.4596 3.495 3.6491h-7.87c.535-2.2643 2.197-3.6491 4.375-3.6491zm23.209 15.9624-.23.0375c-.019 0-.649.1122-1.547.1122-1.452 0-3.534-.2058-5.272-1.235-2.12-1.2538-3.19-3.3497-3.19-6.269v-8.2713h-2.999v-4.1356h3.152v-5.221h5.291v5.221h4.451v4.1356h-4.451v7.8035c0 2.9941 2.273 3.4432 3.629 3.4432.516 0 .841-.0374.86-.0374l.325-.0374zm-110.6195-.1684-5.2339.0561-.0191-1.5532c-1.2416.8421-3.4956 2.0024-6.6474 2.0398-.0573 0-.1147 0-.172 0-7.3351 0-12.9319-5.6889-13.0083-13.3052-.0574-3.6303 1.2798-7.0175 3.763-9.525 2.4833-2.5263 5.9407-3.9485 9.7229-3.986h.2292c6.2272 0 9.5128 3.069 9.6656 3.2l.4011.3743-2.9417 4.4537-.573-.5052c-.0191-.0187-2.5406-2.1333-6.1699-2.1333-.0382 0-.0765 0-.1147 0-4.8518.0561-7.9463 3.1625-7.889 7.9157.0573 4.7719 3.2473 8.0841 7.7744 8.0841h.1146c2.9035-.0374 5.0047-1.7216 5.616-2.2643l-.0191-1.9462-3.8586.0375-.0573-5.1649 9.3217-.1123z" fill="#303f9f"/></svg>

<svg width="155" height="56" viewBox="0 0 155 56" fill="none" xmlns="http://www.w3.org/2000/svg">
    <path d="M48.4803 52.4246L55.2424 36.6306H55.2233C55.4525 36.1253 55.6626 35.6013 55.8346 35.0774C57.5537 30.2119 57.6683 25.0845 56.2357 20.2377L51.9378 3.90101C51.8614 3.50803 51.7276 3.13377 51.5366 2.7595C51.1355 1.97354 50.5433 1.29986 49.7984 0.813317C48.6713 0.0834987 47.2769 -0.159774 45.9589 0.102212L29.493 2.51623C26.5704 2.79693 23.7052 3.56417 20.9927 4.85539C18.3375 6.12789 15.9689 7.79338 13.9823 9.7957L1.85259 21.0985C1.54696 21.3418 1.26044 21.6225 1.03121 21.9219C0.477258 22.6143 0.133424 23.4564 0.0379146 24.3172C-0.134002 25.6646 0.286239 26.9932 1.14582 28.0225L12.0912 42.0949V42.0761C13.7722 44.2095 15.797 46.0621 18.0892 47.5591C20.0949 48.8504 22.2534 49.8422 24.4883 50.5158L24.4692 50.5345L41.8711 55.6994C42.3868 55.8866 42.9217 55.9988 43.4947 55.9988C44.3925 56.0175 45.2903 55.8117 46.0735 55.3813C47.2578 54.7638 48.1174 53.6784 48.4803 52.4246ZM46.1881 3.20862C46.8185 2.90921 47.5634 2.98406 48.0983 3.33961C48.3848 3.52675 48.614 3.77002 48.7668 4.08814C49.2253 5.02381 48.8433 6.16532 47.8691 6.61444C47.2769 6.89514 46.6274 6.839 46.0926 6.5583C46.0544 6.52087 46.0162 6.50216 45.9589 6.46473C45.9207 6.44602 45.8825 6.40859 45.8443 6.38988C45.615 6.22146 45.424 5.9969 45.2903 5.73492C44.8128 4.79925 45.2139 3.67645 46.1881 3.20862ZM3.47626 23.7745C4.12572 22.9511 5.34824 22.7827 6.18873 23.419C6.70448 23.812 6.9528 24.3921 6.9337 24.9909C6.9337 25.0658 6.9337 25.1406 6.9146 25.2155C6.87639 25.5149 6.74268 25.8143 6.55166 26.0763C5.9022 26.8997 4.67968 27.0681 3.83919 26.4318C3.26614 26.0014 3.01781 25.3465 3.09422 24.6915C3.13242 24.3734 3.26614 24.0552 3.47626 23.7745ZM14.2688 35.4891C9.49335 25.8704 13.5812 14.3056 23.3995 9.62728C29.9133 6.52087 37.3439 7.25069 42.979 10.8998C45.8252 12.7524 48.2129 15.3348 49.8175 18.5535C54.5929 28.1722 50.5051 39.737 40.6867 44.4153C34.173 47.5217 26.7424 46.7919 21.1073 43.1428C18.2611 41.2902 15.8734 38.7077 14.2688 35.4891ZM44.5835 52.7427C44.297 52.9111 43.9532 52.986 43.5902 52.986C42.5205 52.9673 41.68 52.0878 41.6991 51.0398C41.7183 50.3474 42.1194 49.7486 42.6925 49.4305C42.979 49.2621 43.3228 49.1872 43.6857 49.1872C44.7555 49.2059 45.5959 50.0854 45.5768 51.1334C45.5577 51.8258 45.1566 52.4246 44.5835 52.7427ZM77.5343 35.2458V27.5733C77.5343 22.5207 74.5735 19.7325 69.1868 19.7325C64.4113 19.7325 61.3741 22.0716 61.2595 22.1652L61.0685 22.3149L63.1315 26.1137L63.3989 25.9266C63.418 25.9079 65.9777 24.1301 68.7665 24.1301C70.9633 24.1301 72.0903 25.1406 72.0903 27.1616V27.5172H71.1543C69.6643 27.5172 66.8181 27.6482 64.3731 28.5651C61.3741 29.6879 59.8651 31.5967 59.8651 34.254C59.8651 36.1627 60.5909 37.7534 61.9663 38.8575C63.1697 39.8305 64.8316 40.3732 66.6462 40.3732C69.8171 40.3732 71.6509 38.6142 72.4914 37.4727V37.6224C72.4914 39.0633 73.5229 39.9241 75.2803 39.9241H80.1704V35.7885H78.1074C77.7062 35.7885 77.5343 35.6201 77.5343 35.2458ZM67.8878 36.2376C66.1305 36.2376 65.3282 35.0587 65.3282 33.8797C65.3282 33.0002 65.9395 30.9604 71.6127 30.9604H72.1285V31.316C72.1285 33.6364 70.3138 36.2376 67.8878 36.2376ZM97.8014 34.254C97.8014 37.9592 94.4586 40.3545 89.2629 40.3545C85.2706 40.3545 81.03 38.6329 81.03 35.4516V32.9441H85.7481V34.3475C85.7481 35.5265 87.5819 36.0505 89.3011 36.0505C90.7719 36.0505 92.3574 35.6013 92.3574 34.385C92.3574 33.2247 91.2686 32.7943 89.0337 32.0084C88.728 31.8961 88.4224 31.8025 88.0977 31.6715C85.729 30.8669 81.7367 29.5008 81.7367 25.4587C81.7367 21.1921 86.0538 19.695 89.7404 19.695C92.7012 19.695 97.0947 20.8365 97.0947 23.9617V26.6938H92.3383V25.3277C92.3383 24.5418 91.3259 24.0365 89.7404 24.0365C89.1483 24.0365 87.1808 24.1488 87.1808 25.4774C87.1808 26.8248 88.8808 27.4236 91.0776 28.0599C93.9237 28.9768 97.8014 30.1932 97.8014 34.254ZM118.928 35.7885H120.323V39.9241H116.388C114.745 39.9241 113.923 39.6808 113.064 38.1276L109.53 32.0832C109.224 31.5593 108.766 31.5031 108.097 31.5031H107.238V35.7885H109.358V39.9241H98.9666V35.7885H101.794V16.7945H98.7565V12.6588H107.238V27.4423H109.396L112.09 24.3172H110.16V20.1816H120.132V24.3172H117.457L113.465 28.9394C113.809 29.1827 114.325 29.6879 114.821 30.5113L117.591 35.2458C117.82 35.6762 118.03 35.7885 118.928 35.7885ZM131.172 19.7325C125.155 19.7325 120.953 23.9804 120.953 30.0435C120.953 36.0317 125.499 40.3545 131.765 40.3545C136.731 40.3545 139.73 37.7159 139.864 37.6037L140.036 37.454L137.877 33.5803L137.61 33.8049C137.591 33.8236 135.165 35.7698 132.108 35.7698C129.09 35.7698 126.932 33.8984 126.55 30.9979H140.036L140.055 30.7546C140.055 30.7172 140.169 29.6879 140.169 29.1078C140.169 26.488 139.348 24.1301 137.858 22.4646C136.254 20.6868 133.942 19.7325 131.172 19.7325ZM131.058 23.9804C133.006 23.9804 134.382 25.44 134.553 27.6295H126.683C127.218 25.3652 128.88 23.9804 131.058 23.9804ZM154.267 39.9428L154.037 39.9803C154.018 39.9803 153.388 40.0925 152.49 40.0925C151.038 40.0925 148.956 39.8867 147.218 38.8575C145.098 37.6037 144.028 35.5078 144.028 32.5885V24.3172H141.029V20.1816H144.181V14.9606H149.472V20.1816H153.923V24.3172H149.472V32.1207C149.472 35.1148 151.745 35.5639 153.101 35.5639C153.617 35.5639 153.942 35.5265 153.961 35.5265L154.286 35.4891L154.267 39.9428ZM43.6475 39.7744L38.4136 39.8305L38.3945 38.2773C37.1529 39.1194 34.8989 40.2797 31.7471 40.3171C31.6898 40.3171 31.6324 40.3171 31.5751 40.3171C24.24 40.3171 18.6432 34.6282 18.5668 27.0119C18.5094 23.3816 19.8466 19.9944 22.3298 17.4869C24.8131 14.9606 28.2705 13.5384 32.0527 13.5009C32.1291 13.5009 32.2055 13.5009 32.2819 13.5009C38.5091 13.5009 41.7947 16.5699 41.9475 16.7009L42.3486 17.0752L39.4069 21.5289L38.8339 21.0237C38.8148 21.005 36.2933 18.8904 32.664 18.8904C32.6258 18.8904 32.5875 18.8904 32.5493 18.8904C27.6975 18.9465 24.603 22.0529 24.6603 26.8061C24.7176 31.578 27.9076 34.8902 32.4347 34.8902C32.4729 34.8902 32.5111 34.8902 32.5493 34.8902C35.4528 34.8528 37.554 33.1686 38.1653 32.6259L38.1462 30.6797L34.2876 30.7172L34.2303 25.5523L43.552 25.44L43.6475 39.7744Z" fill="#303F9F"/>
</svg>
